src/lib/packages/icons/src/assets/filled/star-circle.svg

<svg width="24" height="24" viewBox="0 0 24 24" fill="none" xmlns="http://www.w3.org/2000/svg">
<path d="M12 2C6.477 2 2 6.477 2 12C2 17.523 6.477 22 12 22C17.523 22 22 17.523 22 12C22 6.477 17.523 2 12 2ZM16.8311 11.393L15.031 13.15C14.899 13.278 14.839 13.464 14.87 13.645L15.282 16.05C15.365 16.538 14.8549 16.91 14.4189 16.68L12.259 15.543C12.097 15.458 11.9039 15.458 11.7419 15.543L9.58398 16.679C9.14598 16.909 8.63599 16.536 8.71899 16.048L9.13098 13.645C9.16198 13.463 9.10197 13.278 8.96997 13.15L7.17004 11.393C6.83904 11.07 7.02103 10.507 7.47803 10.44L9.96802 10.078C10.149 10.052 10.306 9.93701 10.387 9.77301L11.4659 7.58398C11.6849 7.13998 12.316 7.13998 12.535 7.58398L13.614 9.77301C13.695 9.93801 13.852 10.052 14.033 10.078L16.5229 10.44C16.9799 10.506 17.1621 11.07 16.8311 11.393Z" fill="currentColor"/>
</svg>

<svg xmlns="http://www.w3.org/2000/svg" width="24" height="24" fill="none"><path fill="currentColor" d="M12 2C6.477 2 2 6.477 2 12s4.477 10 10 10 10-4.477 10-10S17.523 2 12 2Zm4.831 9.393-1.8 1.757a.56.56 0 0 0-.161.495l.412 2.405a.596.596 0 0 1-.863.63l-2.16-1.137a.556.556 0 0 0-.517 0l-2.158 1.136a.597.597 0 0 1-.865-.631l.412-2.403a.558.558 0 0 0-.161-.495l-1.8-1.757a.559.559 0 0 1 .308-.953l2.49-.362a.557.557 0 0 0 .419-.305l1.079-2.189a.596.596 0 0 1 1.069 0l1.079 2.189a.555.555 0 0 0 .419.305l2.49.362c.457.066.64.63.308.953Z"/></svg>
